build/img/icon-download.svg

<svg width="14" height="14" viewBox="0 0 14 14" fill="none" xmlns="http://www.w3.org/2000/svg">
<path d="M0.538472 9.64258C0.835867 9.64258 1.07694 9.88242 1.07694 10.1783V12.3926C1.07694 12.6885 1.31802 12.9283 1.61541 12.9283H12.3846C12.682 12.9283 12.9231 12.6885 12.9231 12.3926V10.1783C12.9231 9.88242 13.1641 9.64258 13.4615 9.64258C13.7589 9.64258 14 9.88242 14 10.1783V12.3926C14 13.2802 13.2768 13.9997 12.3846 13.9997H1.61538C0.72323 13.9997 9.53674e-07 13.2802 9.53674e-07 12.3926V10.1783C9.53674e-07 9.88242 0.241077 9.64258 0.538472 9.64258Z" fill="white"/>
<path d="M3.93912 7.2641C4.14779 7.06362 4.4786 7.06362 4.68724 7.2641L6.46148 9.02819V0.535724C6.46148 0.239847 6.70256 0 6.99995 0C7.29735 0 7.53842 0.239847 7.53842 0.535724V9.02822L9.31159 7.2641C9.5255 7.05857 9.86637 7.06447 10.073 7.27726C10.2745 7.48487 10.2745 7.81399 10.073 8.0216L7.38067 10.7002C7.17064 10.9096 6.8297 10.9101 6.61917 10.7011L6.61819 10.7002L3.9259 8.0216C3.71927 7.80878 3.72521 7.46964 3.93912 7.2641Z" fill="white"/>
</svg>

<svg width="14" height="14" fill="none" xmlns="http://www.w3.org/2000/svg"><path d="M.538 9.643c.298 0 .539.24.539.535v2.215c0 .295.241.535.538.535h10.77c.297 0 .538-.24.538-.535v-2.215c0-.296.241-.535.538-.535.298 0 .539.24.539.535v2.215C14 13.28 13.277 14 12.385 14H1.615C.723 14 0 13.28 0 12.393v-2.215c0-.296.241-.535.538-.535z" fill="#fff"/><path d="M3.94 7.264a.54.54 0 01.747 0l1.774 1.764V.536a.538.538 0 011.077 0v8.492l1.774-1.764a.54.54 0 01.761.013.534.534 0 010 .745L7.381 10.7a.54.54 0 01-.762.001L3.925 8.02a.534.534 0 01.013-.757z" fill="#fff"/></svg>
